X: 15
M:C|
L:1/8
K:D
uA"^Segno"||:dcdA BEE2|BEE2 FDFA|dcdA BEE2|FAAG FDFA|
dcdA BEE2|BEE2 FDFA|dcdA BEE2|FAAG FDFA::


